X: 328
T: Bilmem ki Ne Yaptım
C: Necmi Pişkin
O: Turkey
F: http://compmusic.upf.edu/node/140
N: nisaburek--agirsemai--agir_aksaksemai--bilmem_ki--necmi_piskin
N: makam= nisaburek
N: form= agirsemai
N: usul= agir_aksaksemai = 10/4
M: 10/4
L: 1/16
K: C ^9/8f ^3/4c ^3/4g 
Q: 1/4=72
%%MIDI tuningsystem comma53
A2e4f2 =g2f2 e2d2 e2{g}fe e4 d2ef edcB c6z2  | \
w:  Bil *  *  mem  *  *  *  *  *  *  *  *  ki  ne  *  yap  | 
A3B c2d2 c2dc B4 B2AB c2BA A12 z4  | 
w:  tım  *  *  *  *  *  *  *  *  *  *  sa na  *  ben   | 
ABcd c2de d2ef edcd e6z2 e2e2 e2d2 c2B2 c2de  | 
w:  ney *  *  *  *  *  *  *  *  *  *  *  *  *  *  le dim_ â  | 
edcB c6z2 e3d c3B A4 c2de d2e6 z4  | \
w:  yâ  *  *  *  *  gel  *  *  *  *  câ *  *  nım    | 
e2f4e2 e3d c4 e2d2 c2B2 c2d2 e8 z4  | 
w:  Câ *  *  nım  *  *  *  *  *  *  ye  le  lel   | 
e3f e2d2 c2B2 c4 z4 d3e d2c2 B2A2 B4 z4  | \
w:  lel  le  lel  *  *  *  *  lel  le  lel   | 
z2A4B2 c2d2 c2d2 c2B2 c3B B2{c}BA A12  | 
w:  le  le  lel  *  *  *  *  *  lel  *  le  *  li  *  yâr    | 
e4 e4 e2f2 .e4 .c2.d2 .e4 .e2.d2 .c4 .B2.c2 .d4  | \
w:  Mî rim  te  re  lel  le  le  lel  le  le  lel  le  le  lel   | 
z2e4d2 c4 e3d d3c c3B B2{c}BA A8 A4  | 
w:  le  le  lel  lel  *  lel  *  lel  *  le  *  li  *  yâr   | 
A2B2 c2d2 c3B B3A A6z2 A2e4d2 c2d2 e4  | \
w:  gel  *  *  *  *  *  câ *  nım   SAZ  | 
A2e4f2 =g2f2 e2d2 e2{g}fe e4 d2ef edcB c6z2  | 
w:  Bil *  *  mem  *  *  *  *  *  *  *  *  ki  ne  *  yap  | 
A3B c2d2 c2dc B4 B2AB c2BA A12 z4  | \
w:  tım  *  *  *  *  *  *  *  *  *  *  sa na  *  ben   | 
ABcd c2de d2ef edcd e6z2 e2e2 e2d2 c2B2 c2de  | 
w:  ney *  *  *  *  *  *  *  *  *  *  *  *  *  *  le dim_ â  | 
edcB c6z2 e3d c3B A4 c2de d2e6 z4  | \
w:  yâ  *  *  *  *  gel  *  *  *  *  câ *  *  nım    | 
e2f4e2 e3d c4 e2d2 c2B2 c2d2 e8 z4  | 
w:  Câ *  *  nım  *  *  *  *  *  *  ye  le  lel   | 
e3f e2d2 c2B2 c4 z4 d3e d2c2 B2A2 B4 z4  | \
w:  lel  le  lel  *  *  *  *  lel  le  lel   | 
z2A4B2 c2d2 c2d2 c2B2 c3B B2{c}BA A12  | 
w:  le  le  lel  *  *  *  *  *  lel  *  le  *  li  *  yâr    | 
e4 e4 e2f2 .e4 .c2.d2 .e4 .e2.d2 .c4 .B2.c2 .d4  | \
w:  Mî rim  te  re  lel  le  le  lel  le  le  lel  le  le  lel   | 
z2e4d2 c4 e3d d3c c3B B2{c}BA A8 A4  | 
w:  le  le  lel  lel  *  lel  *  lel  *  le  *  li  *  yâr   | 
A2B2 c2d2 c3B B3A A6z2 A2a4g2 ^3/4f2g2 a4  | \
w:  gel  *  *  *  *  *  câ *  nım   SAZ  | 
g2a4b2 a2g2 ^3/4f2e2 f2g2 a3g f2ga a8 z4  | 
w:  Gûş  *  *  ey *  *  *  *  *  *  *  le me *  din   | 
a2ba g4 g2ag ^3/4f4 f2gf e4 e2^9/8f2 e2d2 c2B2 A4  | \
w:  âh  *  *  *  *  *  *  *  *  *  *  *  i le  ef  | 
A2GA B2AB c2Bc d2cd e6z2 e2e2 e2d2 c2B2 c2de  | 
w:  ga *  *  *  *  *  *  *  *  *  *  *  *  nı mı  as  | 
edcB c6z2 e3d c3B A4 c2de d2e6 z4  | \
w:  la  *  *  *  *  gel  *  *  *  *  câ *  *  nım    | 
e2f4e2 e3d c4 e2d2 c2B2 c2d2 e8 z4  | 
w:  Câ *  *  nım  *  *  *  *  *  *  ye  le  lel   | 
e3f e2d2 c2B2 c4 z4 d3e d2c2 B2A2 B4 z4  | \
w:  lel  le  lel  *  *  *  *  lel  le  lel   | 
z2A4B2 c2d2 c2d2 c2B2 c3B B2{c}BA A12  | 
w:  le  le  lel  *  *  *  *  *  lel  *  le  *  li  *  yâr    | 
e4 e4 e2f2 .e4 .c2.d2 .e4 .e2.d2 .c4 .B2.c2 .d4  | \
w:  Mî rim  te  re  lel  le  le  lel  le  le  lel  le  le  lel   | 
z2e4d2 c4 e3d d3c c3B B2{c}BA A8 A4  | 
w:  le  le  lel  lel  *  lel  *  lel  *  le  *  li  *  yâr   | 
A2B2 c2d2 c3B B3A A6z2 |
w:  gel  *  *  *  *  *  câ *  nım    | 


